X: 7252
T: Clare Glens, The
R: polka
M: 2/4
K: Gmixolydian
|:BA|GF DC|A/B/c d>c|BG FD|F>A BA|
GF DC|A/B/c d>c|BG FD|G>A:|
Bc|dg g>f|dc d>c|Bc de|f2 dc|
dg g>f|dc d>c|BG FD|G>A Bc|
dg g>f|dc d>c|Bc de|f2 f2|
ge/g/ fd|ec d>c|BG FD|G>A||

